storage/app/icons/phosphoricons/bold/calendar-dot-bold.svg

<svg xmlns="http://www.w3.org/2000/svg" fill="currentColor" viewBox="0 0 256 256"><path d="M148 152a20 20 0 1 1-20-20 20 20 0 0 1 20 20m80-104v160a20 20 0 0 1-20 20H48a20 20 0 0 1-20-20V48a20 20 0 0 1 20-20h20v-4a12 12 0 0 1 24 0v4h72v-4a12 12 0 0 1 24 0v4h20a20 20 0 0 1 20 20M52 52v24h152V52h-16a12 12 0 0 1-24 0H92a12 12 0 0 1-24 0Zm152 152V100H52v104Z"/></svg>

<svg xmlns="http://www.w3.org/2000/svg" viewBox="0 0 256 256" fill="currentColor"><path d="M148,152a20,20,0,1,1-20-20A20,20,0,0,1,148,152ZM228,48V208a20,20,0,0,1-20,20H48a20,20,0,0,1-20-20V48A20,20,0,0,1,48,28H68V24a12,12,0,0,1,24,0v4h72V24a12,12,0,0,1,24,0v4h20A20,20,0,0,1,228,48ZM52,52V76H204V52H188a12,12,0,0,1-24,0H92a12,12,0,0,1-24,0ZM204,204V100H52V204Z"/></svg>
